svg/u1fa91.svg

<svg viewBox="0 0 128 128" xmlns="http://www.w3.org/2000/svg">
  <g>
    <path d="M68.35,83.58l0.54,15.79c0.01,1.19,0.79,1.98,2.61,1.98c1.82,0,2.62-0.8,2.62-1.97l0.59-17.03 L68.35,83.58z" fill="#9E5737"/>
    <polygon points="73.76,23.16 67.4,23.16 67.34,50.72 73.8,49.6 " fill="#9E5737"/>
    <path d="M70.3,5.23c-0.96,0.14-38.72,5.7-38.72,5.7c-1.55,0.3-2.81,1.71-2.82,3.52l0.02,0.78l4.19,4.94 c0,0,11.95,9.65,12.84,9.48S77.32,7.36,77.32,7.36c-0.58-0.7-1.17-1.02-3.69-1.67C72.44,5.38,71.26,5.09,70.3,5.23z" fill="#F0AA6B"/>
    <path d="M33.24,37.41l-0.43-20.57c0.01-1.79-0.5-2.54-1.53-3.07c-1.12-0.63-2.51,0.18-2.5,1.47l0.08,19.89 c0,0.61-0.08,2.28,1.18,2.69l2.58,0.74v18.55l6.36-1.24V37.41H33.24z" fill="#9E5737"/>
    <path d="M60.03,77.09v-6.05c-2.42,0.3-3.58-0.08-3.58-0.08L30.08,58.45v3.32c0,1.45,0,2.38,2.12,3.41 l0.34,0.17l1.33,42.93c0.01,1.19,0.91,1.98,2.72,1.98c1.82,0,2.71-0.8,2.71-1.97l1.04-30.83l14.4,7.11l-0.36-7.74 C56.14,77.69,58.09,77.34,60.03,77.09z" fill="#9E5737"/>
    <path d="M100.83,64.13l-41.93,8.09c-0.93,0.21-1.6,1.04-1.6,1.99v0.96c0,1.04,0.77,1.86,1.74,2.01 c-1.64,0.05-3.34-0.27-4.82-1.01l1.48,45.85c0.01,1.19,0.86,1.98,2.67,1.98c1.82,0,2.69-0.8,2.69-1.97l1.25-36.93l30.12-5.8 l1.06,33.82c0.01,1.19,0.89,1.98,2.7,1.98c1.82,0,2.66-0.8,2.66-1.97l1.51-43.73c0,0,0.01,0,0.01,0l0.74-0.14 c1.22-0.23,2.1-1.3,2.1-2.54v-3.87L100.83,64.13z" fill="#BA793E"/>
    <path d="M102.07,64.01l-41.83,8.01c-1.9,0.36-3.87,0.1-5.61-0.77L30.81,59.43 c-1.12-0.56-0.92-2.39,0.73-2.63l42.09-7.16c1.67-0.32,3.43-0.36,4.96,0.39l23.84,11.33C103.64,61.96,103.4,63.75,102.07,64.01z" fill="#F0AA6B"/>
    <path d="M75.18,7.27l-40.36,5.99c-1.75,0.42-2,1.81-2,2.79l0.08,21.06c0,1.28,1.26,1.67,2.52,1.43 l40.54-6.51c0.96-0.19,1.71-1.34,1.72-2.83L77.6,8.14C77.59,6.86,76.4,7.1,75.18,7.27z" fill="#BA793E"/>
    <polygon points="62.3,76.68 92.17,70.96 92.27,73.8 64.84,79.05 64.1,84.75 62.43,85.08 " fill="#9E5737"/>
    <path d="M54.22,76.16L32.5,65.31c0,0,2.59,2.46,5,6.03c2.14,3.18,2.84,6.12,2.84,6.12l1.4,0.69v-5.38 L54.29,79L54.22,76.16z" fill="#77381F"/>
    <path d="M68.38,83.93l0.19,5.73c0,0,0.97-1.76,2.57-2.98c1.55-1.19,3.48-1.46,3.48-1.46l0.09-2.51 L68.38,83.93z" fill="#77381F"/>
  </g>
</svg>

<svg viewBox="0 0 128 128" xmlns="http://www.w3.org/2000/svg">
  <defs/>
  <path d="M68.35,83.58 L68.89,99.37 C68.9,100.56 69.68,101.35 71.5,101.35 C73.32,101.35 74.12,100.55 74.12,99.38 L74.71,82.35 L68.35,83.58 Z" fill="#9E5737"/>
  <path d="M73.76,23.16 L67.4,23.16 L67.34,50.72 L73.8,49.6 Z" fill="#9E5737"/>
  <path d="M70.3,5.23 C69.34,5.37 31.58,10.93 31.58,10.93 C30.03,11.23 28.77,12.64 28.76,14.45 L28.78,15.23 L32.97,20.17 C32.97,20.17 44.92,29.82 45.81,29.65 C46.7,29.48 77.32,7.36 77.32,7.36 C76.74,6.66 76.15,6.34 73.63,5.69 C72.44,5.38 71.26,5.09 70.3,5.23 Z" fill="#F0AA6B"/>
  <path d="M33.24,37.41 L32.81,16.84 C32.82,15.05 32.31,14.3 31.28,13.77 C30.16,13.14 28.77,13.95 28.78,15.24 L28.86,35.13 C28.86,35.74 28.78,37.41 30.04,37.82 L32.62,38.56 L32.62,57.11 L38.98,55.87 L38.98,37.41 L33.24,37.41 Z" fill="#9E5737"/>
  <path d="M60.03,77.09 L60.03,71.04 C57.61,71.34 56.45,70.96 56.45,70.96 L30.08,58.45 L30.08,61.77 C30.08,63.22 30.08,64.15 32.2,65.18 L32.54,65.35 L33.87,108.28 C33.88,109.47 34.78,110.26 36.59,110.26 C38.41,110.26 39.3,109.46 39.3,108.29 L40.34,77.46 L54.74,84.57 L54.38,76.83 C56.14,77.69 58.09,77.34 60.03,77.09 Z" fill="#9E5737"/>
  <path d="M100.83,64.13 L58.9,72.22 C57.97,72.43 57.3,73.26 57.3,74.21 L57.3,75.17 C57.3,76.21 58.07,77.03 59.04,77.18 C57.4,77.23 55.7,76.91 54.22,76.17 L55.7,122.02 C55.71,123.21 56.56,124 58.37,124 C60.19,124 61.06,123.2 61.06,122.03 L62.31,85.1 L92.43,79.3 L93.49,113.12 C93.5,114.31 94.38,115.1 96.19,115.1 C98.01,115.1 98.85,114.3 98.85,113.13 L100.36,69.4 C100.36,69.4 100.37,69.4 100.37,69.4 L101.11,69.26 C102.33,69.03 103.21,67.96 103.21,66.72 L103.21,62.85 L100.83,64.13 Z" fill="#BA793E"/>
  <path d="M102.07,64.01 L60.24,72.02 C58.34,72.38 56.37,72.12 54.63,71.25 L30.81,59.43 C29.69,58.87 29.89,57.04 31.54,56.8 L73.63,49.64 C75.3,49.32 77.06,49.28 78.59,50.03 L102.43,61.36 C103.64,61.96 103.4,63.75 102.07,64.01 Z" fill="#F0AA6B"/>
  <path d="M75.18,7.27 L34.82,13.26 C33.07,13.68 32.82,15.07 32.82,16.05 L32.9,37.11 C32.9,38.39 34.16,38.78 35.42,38.54 L75.96,32.03 C76.92,31.84 77.67,30.69 77.68,29.2 L77.6,8.14 C77.59,6.86 76.4,7.1 75.18,7.27 Z" fill="#BA793E"/>
  <path d="M62.3,76.68 L92.17,70.96 L92.27,73.8 L64.84,79.05 L64.1,84.75 L62.43,85.08 Z" fill="#9E5737"/>
  <path d="M54.22,76.16 L32.5,65.31 C32.5,65.31 35.09,67.77 37.5,71.34 C39.64,74.52 40.34,77.46 40.34,77.46 L41.74,78.15 L41.74,72.77 L54.29,79 L54.22,76.16 Z" fill="#77381F"/>
  <path d="M68.38,83.93 L68.57,89.66 C68.57,89.66 69.54,87.9 71.14,86.68 C72.69,85.49 74.62,85.22 74.62,85.22 L74.71,82.71 L68.38,83.93 Z" fill="#77381F"/>
</svg>
